X:1
T:Andante Religioso
T:Andante Religioso
T:M. Carcassi
C:M. Carcassi
%%score ( 1 2 )
L:1/8
Q:1/4=92
M:4/4
K:C
V:1 treble-8 nm="Violão acústico" snm="Viol."
V:2 treble-8 
V:1
"^Andante" A,/A/c/A/ c/A/A,/A/ F/A/c/A/ c/A/F/A/ | D/A/B/A/ B/A/D/A/ E/^G/d/G/ d/G/E/G/ | %2
 A,/A/c/A/ e/A/c/A/ =G,/G/B/G/ f/G/d/G/ | C/G/c/G/ e/G/c/G/ B,/^G/d/G/ e/G/d/G/ | %4
 A,/A/c/A/"_rall."[Q:1/4=92] F/[Q:1/4=86]"^.2"A/[Q:1/4=82]"^.7"c/[Q:1/4=79]"^.7"A/[Q:1/4=77] D/[Q:1/4=74]"^.5"A/[Q:1/4=72]"^.2"B/[Q:1/4=69]"^.9"A/[Q:1/4=67]"^.8" E,/[Q:1/4=65]"^.8"^G/[Q:1/4=63]"^.8"B/[Q:1/4=61]"^.9"G/ | %5
[Q:1/4=92]"^a tempo" A,/A/c/A/ e/A/c/A/ A,/^G/B/G/ e/G/B/G/ | %6
 A,/A/c/A/ e/A/c/A/ A,/^G/B/G/ e/G/B/G/ | %7
"_rall."[Q:1/4=92] A,/[Q:1/4=85]"^.1"A/[Q:1/4=80]"^.8"c/[Q:1/4=77]"^.2"A/[Q:1/4=74] e/[Q:1/4=71]A/[Q:1/4=68]"^.2"c/[Q:1/4=65]"^.5"A/[Q:1/4=62]"^.9" A,/[Q:1/4=60]"^.5"A/[Q:1/4=58]"^.1"c/[Q:1/4=55]"^.8"A/[Q:1/4=53]"^.6" e/[Q:1/4=51]"^.4"A/[Q:1/4=49]"^.2"c/[Q:1/4=47]"^.2"A/ | %8
[Q:1/4=45]"^.1" !fermata!A,4 |] %9
V:2
 A,2- A,A, F2- FF | D2- DD E2- EE | A,2- [A,e]2 G,2- [G,f]2 | C2- [Ce]2 B,2- [B,e]2 | %4
 A,2 F2 D2 E,2 | A,2- [A,e]2 A,2- [A,e]2 | A,2- [A,e]2 A,2- [A,e]2 | A,2- [A,e]2 A,2- [A,e]2 | %8
 A,4 |] %9

